X:1
T: The Scotch Morris
N:
C:c. 1727
S:
A:
O:
R:
M:4/4
K:Am
I:speed 200
%W: A1
% voice 1 (1 lines, 28 notes)
K:Am
M:4/4
L:1/16
E4 A8 ^G2 A2 |c8 d8 |B4 e4 B2 c2 B2 A2 |^G4 B12 |E4 A8 ^G2 A2 |c8 d8 |B4 e4 B2 c2 B2 A2 |^G4 E12 |
%W: A2
% voice 1 (1 lines, 28 notes)
E4 A8 ^G2 A2 |c8 d8 |B4 e4 B2 c2 B2 A2 |^G4 B12 |E4 A8 ^G2 A2 |c8 d8 |B4 e4 B2 c2 B2 A2 |^G4 E12 |
%W: B1
% voice 1 (1 lines, 35 notes)
e4 a4/3 g4/3 f4/3 |e4 c4 d4 g4/3 |f4/3 e4/3 d4 B4 |B4 e4 c4 B2 c2 |d4 B12 |e6 ^f2 g2 f2 g2 d2 |^f2 g2 a2 f2 ^g8 |a8 A4 B4 |^G4 E12 |
%W: B2
% voice 1 (1 lines, 35 notes)
e4 a4/3 g4/3 f4/3 |e4 c4 d4 g4/3 |f4/3 e4/3 d4 B4 |B4 e4 c4 B2 c2 |d4 B12 |e6 ^f2 g2 f2 g2 d2 |^f2 g2 a2 f2 ^g8 |a8 A4 B4 |^G4 E12 ||

